svg/device/barcode_fill.svg

<?xml version="1.0" encoding="UTF-8"?>
<svg width="24px" height="24px" viewBox="0 0 24 24" version="1.1" xmlns="http://www.w3.org/2000/svg" xmlns:xlink="http://www.w3.org/1999/xlink">
    <title>barcode_fill</title>
    <g id="Icon" stroke="none" stroke-width="1" fill="none" fill-rule="evenodd">
        <g id="Device" transform="translate(-816.000000, -336.000000)">
            <g id="barcode_fill" transform="translate(816.000000, 336.000000)">
                <path d="M24,0 L24,24 L0,24 L0,0 L24,0 Z M12.5935,23.2578 L12.5819,23.2595 L12.5109,23.295 L12.4919,23.2987 L12.4767,23.295 L12.4057,23.2595 C12.3958,23.2564 12.387,23.259 12.3821,23.2649 L12.378,23.2758 L12.3609,23.7031 L12.3659,23.7235 L12.3769,23.7357 L12.4805,23.8097 L12.4953,23.8136 L12.5071,23.8097 L12.6107,23.7357 L12.6233,23.7197 L12.6267,23.7031 L12.6096,23.2758 C12.6076,23.2657 12.601,23.2593 12.5935,23.2578 Z M12.8584,23.1453 L12.8445,23.1473 L12.6598,23.2397 L12.6499,23.2499 L12.6472,23.2611 L12.6651,23.6906 L12.6699,23.7034 L12.6784,23.7105 L12.8793,23.8032 C12.8914,23.8069 12.9022,23.803 12.9078,23.7952 L12.9118,23.7812 L12.8777,23.1665 C12.8753,23.1546 12.8674,23.147 12.8584,23.1453 Z M12.143,23.1473 C12.1332,23.1424 12.1222,23.1453 12.1156,23.1526 L12.1099,23.1665 L12.0758,23.7812 C12.0751,23.7927 12.0828,23.8019 12.0926,23.8046 L12.1083,23.8032 L12.3092,23.7105 L12.3186,23.7024 L12.3225,23.6906 L12.3404,23.2611 L12.3372,23.2485 L12.3278,23.2397 L12.143,23.1473 Z" id="MingCute" fill-rule="nonzero"></path>
                <path d="M20,5 C21.0543909,5 21.9181678,5.81587733 21.9945144,6.85073759 L22,7 L22,17 C22,18.0543909 21.18415,18.9181678 20.1492661,18.9945144 L20,19 L4,19 C2.94563773,19 2.08183483,18.18415 2.00548573,17.1492661 L2,17 L2,7 C2,5.94563773 2.81587733,5.08183483 3.85073759,5.00548573 L4,5 L20,5 Z M6,8 C5.44772,8 5,8.44772 5,9 L5,15 C5,15.5523 5.44772,16 6,16 C6.55228,16 7,15.5523 7,15 L7,9 C7,8.44772 6.55228,8 6,8 Z M12,8 C11.4477,8 11,8.44772 11,9 C11,8.44772 10.5523,8 10,8 C9.48716857,8 9.06449347,8.38604429 9.0067278,8.88337975 L9,9 L9,15 C9,15.5523 9.44772,16 10,16 C10.5523,16 11,15.5523 11,15 C11,15.5523 11.4477,16 12,16 C12.51285,16 12.9355092,15.613973 12.9932725,15.1166239 L13,15 L13,9 C13,8.44772 12.5523,8 12,8 Z M15,8 C14.48715,8 14.0644908,8.38604429 14.0067275,8.88337975 L14,9 L14,15 C14,15.5523 14.4477,16 15,16 C15.51285,16 15.9355092,15.613973 15.9932725,15.1166239 L16,15 L16,9 C16,8.44772 15.5523,8 15,8 Z M18,8 C17.4477,8 17,8.44772 17,9 L17,15 C17,15.5523 17.4477,16 18,16 C18.5523,16 19,15.5523 19,15 L19,9 C19,8.44772 18.5523,8 18,8 Z" id="形状" fill="#09244B"></path>
            </g>
        </g>
    </g>
</svg>

<svg xmlns="http://www.w3.org/2000/svg" width="24" height="24"><g fill="none" fill-rule="evenodd"><path d="M24 0v24H0V0h24ZM12.594 23.258l-.012.002-.071.035-.02.004-.014-.004-.071-.036c-.01-.003-.019 0-.024.006l-.004.01-.017.428.005.02.01.013.104.074.015.004.012-.004.104-.074.012-.016.004-.017-.017-.427c-.002-.01-.009-.017-.016-.018Zm.264-.113-.014.002-.184.093-.01.01-.003.011.018.43.005.012.008.008.201.092c.012.004.023 0 .029-.008l.004-.014-.034-.614c-.003-.012-.01-.02-.02-.022Zm-.715.002a.023.023 0 0 0-.027.006l-.006.014-.034.614c0 .012.007.02.017.024l.015-.002.201-.093.01-.008.003-.011.018-.43-.003-.012-.01-.01-.184-.092Z"/><path fill="#09244B" d="M20 5a2 2 0 0 1 1.995 1.85L22 7v10a2 2 0 0 1-1.85 1.995L20 19H4a2 2 0 0 1-1.995-1.85L2 17V7a2 2 0 0 1 1.85-1.995L4 5h16ZM6 8a1 1 0 0 0-1 1v6a1 1 0 1 0 2 0V9a1 1 0 0 0-1-1Zm6 0a1 1 0 0 0-1 1 1 1 0 0 0-1.993-.117L9 9v6a1 1 0 1 0 2 0 1 1 0 0 0 1.993.117L13 15V9a1 1 0 0 0-1-1Zm3 0a1 1 0 0 0-.993.883L14 9v6a1 1 0 0 0 1.993.117L16 15V9a1 1 0 0 0-1-1Zm3 0a1 1 0 0 0-1 1v6a1 1 0 1 0 2 0V9a1 1 0 0 0-1-1Z"/></g></svg>
